image/market-icon2.svg

<svg width="64" height="64" viewBox="0 0 64 64" fill="none" xmlns="http://www.w3.org/2000/svg">
<g clip-path="url(#clip0)">
<path d="M12.8001 10.6667C13.3892 10.6667 13.8667 10.1891 13.8667 9.59999V8.53332C13.8713 5.22792 16.3899 2.46863 19.6811 2.16318L22.2411 6.42985C22.6276 7.07158 23.3213 7.46475 24.0705 7.46665H39.9297C40.6782 7.4646 41.3714 7.07192 41.7579 6.43092L44.3179 2.16425C47.6092 2.46914 50.1282 5.22796 50.1334 8.53332V25.6C50.1334 26.1891 50.611 26.6667 51.2001 26.6667C51.7892 26.6667 52.2667 26.1891 52.2667 25.6V8.53332C52.2614 3.82268 48.444 0.00527528 43.7334 -1.52588e-05H20.2667C15.5561 0.00527528 11.7387 3.82268 11.7334 8.53332V9.59999C11.7334 10.1891 12.211 10.6667 12.8001 10.6667ZM39.9297 5.33332H24.0705L22.1505 2.13332H41.8497L39.9297 5.33332Z" fill="black"/>
<path d="M52.2667 55.4667V49.0667C52.2667 48.4776 51.7892 48 51.2001 48C50.611 48 50.1334 48.4776 50.1334 49.0667V55.4667C50.1299 58.9998 47.2666 61.8631 43.7334 61.8667H20.2667C16.7336 61.8631 13.8703 58.9998 13.8667 55.4667V37.3333C13.8667 36.7442 13.3892 36.2667 12.8001 36.2667C12.211 36.2667 11.7334 36.7442 11.7334 37.3333V55.4667C11.7387 60.1773 15.5561 63.9947 20.2667 64H43.7334C48.444 63.9947 52.2614 60.1773 52.2667 55.4667Z" fill="black"/>
<path d="M42.6671 58.6666C43.2562 58.6666 43.7338 58.1891 43.7338 57.6C43.7338 57.0109 43.2562 56.5333 42.6671 56.5333H21.3338C20.7447 56.5333 20.2671 57.0109 20.2671 57.6C20.2671 58.1891 20.7447 58.6666 21.3338 58.6666H42.6671Z" fill="black"/>
<path d="M7.46686 34.1333H20.0151L27.0317 40.2698C27.3649 40.5608 27.8432 40.6158 28.2338 40.4082C28.6245 40.2006 28.8464 39.7734 28.7917 39.3344L28.1421 34.1333H28.8002C31.1566 34.1333 33.0669 32.2231 33.0669 29.8666V17.0666C33.0669 14.7102 31.1566 12.8 28.8002 12.8H7.46686C5.11045 12.8 3.2002 14.7102 3.2002 17.0666V29.8666C3.2002 32.2231 5.11045 34.1333 7.46686 34.1333ZM5.33353 17.0666C5.33353 15.8884 6.28866 14.9333 7.46686 14.9333H28.8002C29.9784 14.9333 30.9335 15.8884 30.9335 17.0666V29.8666C30.9335 31.0448 29.9784 32 28.8002 32H26.9335C26.6276 32.0001 26.3365 32.1315 26.1341 32.3608C25.9317 32.5902 25.8375 32.8954 25.8754 33.1989L26.3277 36.8202L21.1202 32.2634C20.9253 32.0931 20.6751 31.9995 20.4162 32H7.46686C6.28866 32 5.33353 31.0448 5.33353 29.8666V17.0666Z" fill="black"/>
<path d="M8.53346 22.4H10.6668C11.2559 22.4 11.7335 21.9224 11.7335 21.3333C11.7335 20.7442 11.2559 20.2666 10.6668 20.2666H8.53346C7.94436 20.2666 7.4668 20.7442 7.4668 21.3333C7.4668 21.9224 7.94436 22.4 8.53346 22.4Z" fill="black"/>
<path d="M14.9334 22.4H27.7334C28.3225 22.4 28.8 21.9224 28.8 21.3333C28.8 20.7442 28.3225 20.2666 27.7334 20.2666H14.9334C14.3443 20.2666 13.8667 20.7442 13.8667 21.3333C13.8667 21.9224 14.3443 22.4 14.9334 22.4Z" fill="black"/>
<path d="M27.7337 24.5333H25.6004C25.0113 24.5333 24.5337 25.0109 24.5337 25.6C24.5337 26.1891 25.0113 26.6667 25.6004 26.6667H27.7337C28.3228 26.6667 28.8004 26.1891 28.8004 25.6C28.8004 25.0109 28.3228 24.5333 27.7337 24.5333Z" fill="black"/>
<path d="M8.53346 26.6667H21.3335C21.9226 26.6667 22.4001 26.1891 22.4001 25.6C22.4001 25.0109 21.9226 24.5333 21.3335 24.5333H8.53346C7.94436 24.5333 7.4668 25.0109 7.4668 25.6C7.4668 26.1891 7.94436 26.6667 8.53346 26.6667Z" fill="black"/>
<path d="M35.2002 33.0666V41.6C35.2002 43.9564 37.1104 45.8667 39.4669 45.8667H40.125L39.4754 51.0677C39.4207 51.5067 39.6426 51.9339 40.0332 52.1416C40.4239 52.3492 40.9021 52.2941 41.2354 52.0032L48.2519 45.8667H56.5335C58.8899 45.8667 60.8002 43.9564 60.8002 41.6V33.0666C60.8002 30.7102 58.8899 28.8 56.5335 28.8H39.4669C37.1104 28.8 35.2002 30.7102 35.2002 33.0666ZM58.6669 33.0666V41.6C58.6669 42.7782 57.7117 43.7333 56.5335 43.7333H47.8509C47.5927 43.7333 47.3434 43.8269 47.149 43.9968L41.9394 48.5536L42.3917 44.9323C42.4296 44.6287 42.3354 44.3235 42.133 44.0942C41.9306 43.8648 41.6394 43.7334 41.3335 43.7333H39.4669C38.2887 43.7333 37.3335 42.7782 37.3335 41.6V33.0666C37.3335 31.8884 38.2887 30.9333 39.4669 30.9333H56.5335C57.7117 30.9333 58.6669 31.8884 58.6669 33.0666Z" fill="black"/>
<path d="M53.3338 36.2667H55.4671C56.0562 36.2667 56.5338 35.7891 56.5338 35.2C56.5338 34.6109 56.0562 34.1333 55.4671 34.1333H53.3338C52.7447 34.1333 52.2671 34.6109 52.2671 35.2C52.2671 35.7891 52.7447 36.2667 53.3338 36.2667Z" fill="black"/>
<path d="M40.5335 36.2667H49.0668C49.6559 36.2667 50.1335 35.7891 50.1335 35.2C50.1335 34.6109 49.6559 34.1333 49.0668 34.1333H40.5335C39.9444 34.1333 39.4668 34.6109 39.4668 35.2C39.4668 35.7891 39.9444 36.2667 40.5335 36.2667Z" fill="black"/>
<path d="M42.6668 38.4H40.5335C39.9444 38.4 39.4668 38.8776 39.4668 39.4667C39.4668 40.0558 39.9444 40.5333 40.5335 40.5333H42.6668C43.2559 40.5333 43.7335 40.0558 43.7335 39.4667C43.7335 38.8776 43.2559 38.4 42.6668 38.4Z" fill="black"/>
<path d="M55.4667 38.4H46.9334C46.3443 38.4 45.8667 38.8776 45.8667 39.4667C45.8667 40.0558 46.3443 40.5333 46.9334 40.5333H55.4667C56.0558 40.5333 56.5334 40.0558 56.5334 39.4667C56.5334 38.8776 56.0558 38.4 55.4667 38.4Z" fill="black"/>
</g>
<defs>
<clipPath id="clip0">
<rect width="64" height="64" fill="white"/>
</clipPath>
</defs>
</svg>

<?xml version="1.0" encoding="UTF-8" standalone="no"?>
<svg width="64" xmlns="http://www.w3.org/2000/svg" fill="none" viewBox="0 0 64 64" height="64">
 <g fill="#000" clip-path="url(#clip0)">
  <path d="m12.8 10.667c0.589 0 1.067-0.478 1.067-1.067v-1.0667c0.004-3.3054 2.523-6.0647 5.814-6.3701l2.56 4.2666c0.387 0.6418 1.08 1.035 1.829 1.0368h15.86c0.748-0.002 1.441-0.3947 1.828-1.0357l2.56-4.2667c3.291 0.3049 5.81 3.0638 5.815 6.3691v17.067c0 0.589 0.478 1.067 1.067 1.067s1.067-0.478 1.067-1.067v-17.067c-0.006-4.7103-3.823-8.5277-8.534-8.533h-23.466c-4.711 0.0052753-8.528 3.8227-8.534 8.5333v1.0667c0 0.589 0.478 1.067 1.067 1.067zm27.13-5.3337h-15.86l-1.92-3.2h19.7l-1.92 3.2z"/>
  <path d="m52.267 55.467v-6.4c0-0.589-0.478-1.067-1.067-1.067s-1.067 0.478-1.067 1.067v6.4c-0.003 3.533-2.866 6.396-6.4 6.4h-23.466c-3.533-0.004-6.397-2.867-6.4-6.4v-18.134c0-0.589-0.478-1.066-1.067-1.066s-1.067 0.477-1.067 1.066v18.134c0.006 4.71 3.823 8.528 8.534 8.533h23.466c4.711-0.005 8.528-3.823 8.534-8.533z"/>
  <path d="m42.667 58.667c0.589 0 1.067-0.478 1.067-1.067s-0.478-1.067-1.067-1.067h-21.333c-0.589 0-1.067 0.478-1.067 1.067s0.478 1.067 1.067 1.067h21.333z"/>
  <path d="m7.4669 34.133h12.548l7.017 6.137c0.333 0.291 0.811 0.346 1.202 0.138 0.39-0.207 0.612-0.635 0.558-1.074l-0.65-5.201h0.658c2.357 0 4.267-1.91 4.267-4.266v-12.8c0-2.357-1.91-4.267-4.267-4.267h-21.333c-2.3566 0-4.2668 1.91-4.2668 4.267v12.8c0 2.356 1.9102 4.266 4.2667 4.266zm-2.1334-17.066c0-1.179 0.9552-2.134 2.1334-2.134h21.333c1.178 0 2.134 0.955 2.134 2.134v12.8c0 1.178-0.956 2.133-2.134 2.133h-1.866c-0.306 0-0.598 0.132-0.8 0.361s-0.296 0.534-0.259 0.838l0.453 3.621-5.208-4.557c-0.195-0.17-0.445-0.263-0.704-0.263h-12.949c-1.1783 0-2.1335-0.955-2.1335-2.133v-12.8z"/>
  <path d="m8.5335 22.4h2.1335c0.589 0 1.067-0.478 1.067-1.067s-0.478-1.066-1.067-1.066h-2.1335c-0.5891 0-1.0667 0.477-1.0667 1.066s0.4776 1.067 1.0667 1.067z"/>
  <path d="m14.933 22.4h12.8c0.589 0 1.067-0.478 1.067-1.067s-0.478-1.066-1.067-1.066h-12.8c-0.589 0-1.066 0.477-1.066 1.066s0.477 1.067 1.066 1.067z"/>
  <path d="m27.734 24.533h-2.134c-0.589 0-1.066 0.478-1.066 1.067s0.477 1.067 1.066 1.067h2.134c0.589 0 1.066-0.478 1.066-1.067s-0.477-1.067-1.066-1.067z"/>
  <path d="m8.5335 26.667h12.8c0.589 0 1.066-0.478 1.066-1.067s-0.477-1.067-1.066-1.067h-12.8c-0.5896 0-1.0672 0.478-1.0672 1.067s0.4776 1.067 1.0667 1.067z"/>
  <path d="m35.2 33.067v8.533c0 2.356 1.91 4.267 4.267 4.267h0.658l-0.65 5.201c-0.054 0.439 0.168 0.866 0.558 1.074 0.391 0.207 0.869 0.152 1.202-0.139l7.017-6.136h8.282c2.356 0 4.266-1.911 4.266-4.267v-8.533c0-2.357-1.91-4.267-4.266-4.267h-17.067c-2.357 0-4.267 1.91-4.267 4.267zm23.467 0v8.533c0 1.178-0.955 2.133-2.133 2.133h-8.683c-0.258 0-0.508 0.094-0.702 0.264l-5.21 4.557 0.453-3.622c0.038-0.303-0.057-0.608-0.259-0.838-0.202-0.229-0.494-0.361-0.799-0.361h-1.867c-1.178 0-2.133-0.955-2.133-2.133v-8.533c0-1.179 0.955-2.134 2.133-2.134h17.067c1.178 0 2.133 0.955 2.133 2.134z"/>
  <path d="m53.334 36.267h2.133c0.589 0 1.067-0.478 1.067-1.067s-0.478-1.067-1.067-1.067h-2.133c-0.589 0-1.067 0.478-1.067 1.067s0.478 1.067 1.067 1.067z"/>
  <path d="m40.534 36.267h8.533c0.589 0 1.067-0.478 1.067-1.067s-0.478-1.067-1.067-1.067h-8.533c-0.59 0-1.067 0.478-1.067 1.067s0.477 1.067 1.067 1.067z"/>
  <path d="m42.667 38.4h-2.133c-0.59 0-1.067 0.478-1.067 1.067s0.477 1.066 1.067 1.066h2.133c0.589 0 1.067-0.477 1.067-1.066s-0.478-1.067-1.067-1.067z"/>
  <path d="m55.467 38.4h-8.534c-0.589 0-1.066 0.478-1.066 1.067s0.477 1.066 1.066 1.066h8.534c0.589 0 1.066-0.477 1.066-1.066s-0.477-1.067-1.066-1.067z"/>
 </g>
 <defs>
  <clipPath id="clip0">
   <rect width="64" fill="#fff" height="64"/>
  </clipPath>
 </defs>
</svg>
